X:80
T:Bracken Rigg
C:Jack Armstrong
L:1/4
M:2/2
S:Colin Hume's website,  colinhume.com  - chords can also be printed below the stave.
Q:1/2=104
H:For the damce "The Countryman's Hat" by Irene Crew
K:G
P:A
|: d/c/ | "G"Bd "/"Gg | "G"G/A/B/c/ "/"dB | "Am"ce "/"AG | "D7"Fd/e/dd/c/ |\
"G"Bd "/"Gg | "Am"a/g/f/e/ "D7"dc | "G"B/G/B/d/ "D7"c/A/F/A/ | "G"GG "/"G :|
P:B
|: B/c/ | "G"dB "/"gd | "C"ec "Am"ag | "D"f/g/f/e/ "D7"d/e/d/c/ | "G"B/c/d/e/ "D7"dB/c/ |\
"G"dB "C"ec | "B7"f^d "Em"gf/e/ | "G"d/e/d/c/ "D7"B/d/e/f/ | "G"ggg :|

